Papirus/64x64/apps/gta-3.svg

<?xml version="1.0" encoding="UTF-8" standalone="no"?>
<svg
   id="_图层_1"
   version="1.1"
   viewBox="0 0 64 64" width="64" height="64"
   sodipodi:docname="gta-3.svg"
   xml:space="preserve"
   inkscape:version="1.4 (e7c3feb100, 2024-10-09)"
   xmlns:inkscape="http://www.inkscape.org/namespaces/inkscape"
   xmlns:sodipodi="http://sodipodi.sourceforge.net/DTD/sodipodi-0.dtd"
   xmlns="http://www.w3.org/2000/svg"
   xmlns:svg="http://www.w3.org/2000/svg"><sodipodi:namedview
     id="namedview26"
     pagecolor="#505050"
     bordercolor="#eeeeee"
     borderopacity="1"
     inkscape:showpageshadow="0"
     inkscape:pageopacity="0"
     inkscape:pagecheckerboard="0"
     inkscape:deskcolor="#505050"
     inkscape:zoom="10.6875"
     inkscape:cx="32"
     inkscape:cy="26.666667"
     inkscape:window-width="1920"
     inkscape:window-height="939"
     inkscape:window-x="0"
     inkscape:window-y="34"
     inkscape:window-maximized="1"
     inkscape:current-layer="_图层_1" /><!-- Generator: Adobe Illustrator 29.0.1, SVG Export Plug-In . SVG Version: 2.1.0 Build 192)  --><defs
     id="defs6"><style
       id="style1">
      .st0 {
        fill-opacity: .5;
      }

      .st0, .st1, .st2, .st3, .st4, .st5, .st6, .st7 {
        fill: #fff;
      }

      .st8 {
        fill: #133c9a;
      }

      .st2, .st9 {
        display: none;
      }

      .st3 {
        fill-opacity: .2;
      }

      .st4 {
        fill-opacity: .9;
      }

      .st10 {
        fill: #3370ff;
      }

      .st11 {
        fill: url(#_未命名的渐变_3);
      }

      .st12 {
        fill: url(#_未命名的渐变);
      }

      .st5 {
        fill-opacity: .3;
      }

      .st6 {
        fill-opacity: 0;
      }

      .st7 {
        fill-opacity: .7;
      }

      .st13 {
        fill: #00d6b9;
      }

      .st14 {
        fill: url(#_未命名的渐变_2);
      }
    </style><radialGradient
       id="_未命名的渐变"
       data-name="未命名的渐变"
       cx="123.9"
       cy="-40.2"
       fx="123.9"
       fy="-40.2"
       r="59.4"
       gradientTransform="translate(-26.8 25.5) scale(.6 -.7)"
       gradientUnits="userSpaceOnUse"><stop
         offset="0"
         stop-color="#db202e"
         id="stop1" /><stop
         offset="1"
         stop-color="#e01b24"
         id="stop2" /></radialGradient><radialGradient
       id="_未命名的渐变_2"
       data-name="未命名的渐变 2"
       cx="67.6"
       cy="26.8"
       fx="67.6"
       fy="26.8"
       r="105.2"
       gradientTransform="translate(-26.6 25.3) scale(.6 -.7)"
       gradientUnits="userSpaceOnUse"><stop
         offset="0"
         stop-color="#ffb648"
         id="stop3" /><stop
         offset="1"
         stop-color="#ff7800"
         stop-opacity="0"
         id="stop4" /></radialGradient><radialGradient
       id="_未命名的渐变_3"
       data-name="未命名的渐变 3"
       cx="61.7"
       cy="18.6"
       fx="61.7"
       fy="18.6"
       r="68"
       gradientTransform="translate(-26.8 25.8) scale(.6 -.7)"
       gradientUnits="userSpaceOnUse"><stop
         offset="0"
         stop-color="#c64600"
         id="stop5" /><stop
         offset="1"
         stop-color="#a51d2d"
         id="stop6" /></radialGradient></defs><path
     class="st1"
     d="M47.5,64.1H13.8c-7.6,0-13.8-6.3-13.8-13.8V13.7C0,6.2,6.2,0,13.7,0h36.6c7.5,0,13.7,6.2,13.7,13.7v36.6c0,7.5-6.2,13.7-13.7,13.7h-2.9.1Z"
     id="path6"
     style="fill:#e4e4e4;fill-opacity:1" /><g
     id="g33"
     transform="translate(-0.74853801,0.14619883)"><path
       d="m 10,10 a 6.0006,6.0006 0 0 0 -6,6 v 10 a 6.0006,6.0006 0 0 0 4,5.650391 v 1.701171 A 6.0006,6.0006 0 0 0 4,39 v 10 a 6.0006,6.0006 0 0 0 6,6 h 44 a 6.0006,6.0006 0 0 0 6,-6 V 39 A 6.0006,6.0006 0 0 0 56,33.349609 V 31.648438 A 6.0006,6.0006 0 0 0 60,26 V 16 A 6.0006,6.0006 0 0 0 54,10 H 49.445312 39.433594 36.941406 26.935547 24.447266 14.435547 Z"
       style="opacity:0.2"
       id="path1" /><path
       style="fill:#3f3f3f"
       d="m 10,9 a 6.0006,6.0006 0 0 0 -6,6 v 10 a 6.0006,6.0006 0 0 0 4,5.650391 v 1.701171 A 6.0006,6.0006 0 0 0 4,38 v 10 a 6.0006,6.0006 0 0 0 6,6 h 44 a 6.0006,6.0006 0 0 0 6,-6 V 38 A 6.0006,6.0006 0 0 0 56,32.349609 V 30.648438 A 6.0006,6.0006 0 0 0 60,25 V 15 A 6.0006,6.0006 0 0 0 54,9 H 49.445312 39.433594 36.941406 26.935547 24.447266 14.435547 Z"
       id="path2-0" /><path
       d="m 10,16 v 10 h 4 V 39 H 10 V 49 H 54 V 39 H 50 V 26 h 4 V 16 H 49.445312 39.433594 36.941406 26.935547 24.447266 14.435547 Z m 14,10 h 3 v 13 h -3 z m 13,0 h 3 v 13 h -3 z"
       style="opacity:0.2"
       id="path3-6" /><path
       style="fill:#ffffff"
       d="m 10,15 v 10 h 4 V 38 H 10 V 48 H 54 V 38 H 50 V 25 h 4 V 15 H 49.445312 39.433594 36.941406 26.935547 24.447266 14.435547 Z m 14,10 h 3 v 13 h -3 z m 13,0 h 3 v 13 h -3 z"
       id="path4" /><path
       style="opacity:0.1;fill:#ffffff"
       d="m 10,9 a 6.0006,6.0006 0 0 0 -6,6 v 1 a 6.0006,6.0006 0 0 1 6,-6 h 4.435547 10.011719 2.488281 10.005859 2.492188 H 49.445312 54 a 6.0006,6.0006 0 0 1 6,6 V 15 A 6.0006,6.0006 0 0 0 54,9 H 49.445312 39.433594 36.941406 26.935547 24.447266 14.435547 Z m 46,23.349609 v 1 A 6.0006,6.0006 0 0 1 60,39 v -1 a 6.0006,6.0006 0 0 0 -4,-5.650391 z m -48,0.002 A 6.0006,6.0006 0 0 0 4,38 v 1 a 6.0006,6.0006 0 0 1 4,-5.648438 z"
       id="path5" /></g></svg>

<svg xmlns="http://www.w3.org/2000/svg" width="64" height="64" version="1.1">
 <path d="m 10,10 a 6.0006,6.0006 0 0 0 -6,6 v 10 a 6.0006,6.0006 0 0 0 4,5.650391 v 1.701171 A 6.0006,6.0006 0 0 0 4,39 v 10 a 6.0006,6.0006 0 0 0 6,6 h 44 a 6.0006,6.0006 0 0 0 6,-6 V 39 A 6.0006,6.0006 0 0 0 56,33.349609 V 31.648438 A 6.0006,6.0006 0 0 0 60,26 V 16 A 6.0006,6.0006 0 0 0 54,10 H 49.445312 39.433594 36.941406 26.935547 24.447266 14.435547 Z" style="opacity:0.2"/>
 <path style="fill:#3f3f3f" d="M 10 9 A 6.0006 6.0006 0 0 0 4 15 L 4 25 A 6.0006 6.0006 0 0 0 8 30.650391 L 8 32.351562 A 6.0006 6.0006 0 0 0 4 38 L 4 48 A 6.0006 6.0006 0 0 0 10 54 L 54 54 A 6.0006 6.0006 0 0 0 60 48 L 60 38 A 6.0006 6.0006 0 0 0 56 32.349609 L 56 30.648438 A 6.0006 6.0006 0 0 0 60 25 L 60 15 A 6.0006 6.0006 0 0 0 54 9 L 49.445312 9 L 39.433594 9 L 36.941406 9 L 26.935547 9 L 24.447266 9 L 14.435547 9 L 10 9 z"/>
 <path d="m 10,16 v 10 h 4 V 39 H 10 V 49 H 54 V 39 H 50 V 26 h 4 V 16 H 49.445312 39.433594 36.941406 26.935547 24.447266 14.435547 Z m 14,10 h 3 v 13 h -3 z m 13,0 h 3 v 13 h -3 z" style="opacity:0.2"/>
 <path style="fill:#ffffff" d="M 10 15 L 10 25 L 14 25 L 14 38 L 10 38 L 10 48 L 54 48 L 54 38 L 50 38 L 50 25 L 54 25 L 54 15 L 49.445312 15 L 39.433594 15 L 36.941406 15 L 26.935547 15 L 24.447266 15 L 14.435547 15 L 10 15 z M 24 25 L 27 25 L 27 38 L 24 38 L 24 25 z M 37 25 L 40 25 L 40 38 L 37 38 L 37 25 z"/>
 <path style="opacity:0.1;fill:#ffffff" d="M 10 9 A 6.0006 6.0006 0 0 0 4 15 L 4 16 A 6.0006 6.0006 0 0 1 10 10 L 14.435547 10 L 24.447266 10 L 26.935547 10 L 36.941406 10 L 39.433594 10 L 49.445312 10 L 54 10 A 6.0006 6.0006 0 0 1 60 16 L 60 15 A 6.0006 6.0006 0 0 0 54 9 L 49.445312 9 L 39.433594 9 L 36.941406 9 L 26.935547 9 L 24.447266 9 L 14.435547 9 L 10 9 z M 56 32.349609 L 56 33.349609 A 6.0006 6.0006 0 0 1 60 39 L 60 38 A 6.0006 6.0006 0 0 0 56 32.349609 z M 8 32.351562 A 6.0006 6.0006 0 0 0 4 38 L 4 39 A 6.0006 6.0006 0 0 1 8 33.351562 L 8 32.351562 z"/>
</svg>
